dist/img/benefits-card_1.svg

<svg width="32" height="28" viewBox="0 0 32 28" fill="none" xmlns="http://www.w3.org/2000/svg">
<path d="M30.8148 25.5662H29.6296V1.21837C29.6296 0.895496 29.5048 0.585848 29.2825 0.357542C29.0602 0.129237 28.7588 0.000976563 28.4444 0.000976562H20.1481C19.8338 0.000976562 19.5324 0.129237 19.3101 0.357542C19.0878 0.585848 18.963 0.895496 18.963 1.21837V7.30532H11.8519C11.5375 7.30532 11.2361 7.43358 11.0138 7.66189C10.7915 7.89019 10.6667 8.19984 10.6667 8.52272V14.6097H3.55556C3.24123 14.6097 2.93977 14.7379 2.7175 14.9662C2.49524 15.1945 2.37037 15.5042 2.37037 15.8271V25.5662H1.18519C0.870854 25.5662 0.569398 25.6945 0.347133 25.9228C0.124867 26.1511 0 26.4607 0 26.7836C0 27.1065 0.124867 27.4161 0.347133 27.6444C0.569398 27.8727 0.870854 28.001 1.18519 28.001H30.8148C31.1291 28.001 31.4306 27.8727 31.6529 27.6444C31.8751 27.4161 32 27.1065 32 26.7836C32 26.4607 31.8751 26.1511 31.6529 25.9228C31.4306 25.6945 31.1291 25.5662 30.8148 25.5662ZM13.037 9.74011H18.963V25.5662H13.037V9.74011ZM4.74074 17.0445H10.6667V25.5662H4.74074V17.0445Z" fill="#292930"/>
</svg>

<svg width="32" height="28" fill="none" xmlns="http://www.w3.org/2000/svg"><path d="M30.815 25.566H29.63V1.218a1.23 1.23 0 00-.348-.86A1.17 1.17 0 0028.444 0h-8.296a1.17 1.17 0 00-.838.357 1.234 1.234 0 00-.347.86v6.087h-7.111a1.17 1.17 0 00-.838.357 1.234 1.234 0 00-.347.86v6.088H3.556a1.17 1.17 0 00-.839.356 1.235 1.235 0 00-.347.861v9.74H1.185a1.17 1.17 0 00-.838.356 1.234 1.234 0 00-.347.86c0 .323.125.633.347.861.222.229.524.357.838.357h29.63c.314 0 .616-.128.838-.357.222-.228.347-.537.347-.86 0-.323-.125-.633-.347-.861a1.17 1.17 0 00-.838-.357zM13.037 9.74h5.926v15.826h-5.926V9.74zm-8.296 7.304h5.926v8.522H4.74v-8.521z" fill="#292930"/></svg>
